X:1
T:The mighty conqueror - Webbe
T:#
%%score [ 1 { 2 | 3 } 4 ]
L:1/8
Q:1/4=90
M:4/4
K:D
V:1 treble nm="Alto" snm="A"
V:2 treble-8 nm="Tenor II"
V:3 treble-8 
V:4 bass nm="Bass" snm="B"
V:1
"^The mighty conqueror""^allegro con spirito""^Samuel Webbe\n(1740-1816)" z!f! AAG F>E D2 | %1
w: The migh- ty con- quer- or,|
 z AAF F>F FF | A3 B G2 F2 |[M:4/4] E3 E F2 z D | A3 G F2 z E | F2 A2 F2 z E | F2 z2!ff! A4 | %7
w: the migh- ty con- quer- or of|hearts, His pow'r I|here de- ny; With|all his flames, his|flames, his fires and|darts, I,|
 B2 A2 G2 F2 | E4 E4 | E6 E2 | E3 E E2 E2 | E4 A4 |"^dim." F2 E2 ^G2 A2 | ^G3!p! E A3 A | %14
w: cham- pion- like, de-|fy. The|migh- ty|con- quer- or of|hearts, His|pow'r I here de-|ny; With all his|
 F2 B2 ^G3 G | A!ff!FED CEFD | C2 B,2 C4 | z8 | z4 z2!p! D2 | C3 ^A, B,2 B,2 | ^A,3 F F2 D2 | %21
w: flames, his fires and|darts, I, cham- pion- like, I cham- pion-|like, de- fy.||Hence-|forth at Bac- chus'|shrine, at Bac- chus'|
 z C^A,C z DB,D | z FED C4 | z GGF (FE){F} (ED) |{E} (DC){D} (CB,){C} (B,^A,) B,2 | E3 D C2 F2 | %26
w: at Bac- chus', at Bac- chus',|at Bac- chus' shrine.|I'll of- fer all * * *|* * * * * * Hence-|forth at Bac- chus'|
 D4 z4 | z4 z AEA | F4 F4 | !>!G4 !>!^G4 | A3!f! A AAAA | A3 A A^GGG | A3!p! C CDEF | %33
w: shrine.|The mer- ry|god ne'er|tells us|lies; There's no de- ceit in|wine, there's no de- ceit in|wine. The mer- ry, mer- ry|
 =G2 E2 F2 ^G2 |"^cresc." A8- | A8 | A3!f! G F3 (G/E/) | D3 B (A3 G | F2)!ff! F2 E3 (F/G/) | %39
w: god ne'er tells us|lies,||* There's no de\- *|ceit in wine, *|* There's no de\- *|
 F2 TE2 !fermata!D4 | %40
w: ceit in wine.|
V:2
 z!f! ffe d>A A2 | z ffd d>d dd | d3 d c2 d2 |[M:4/4][K:treble-8] d3 c d2 z d | f3 e d2 z c | %5
w: The migh- ty con- quer- or,|the migh- ty con- quer- or of|hearts, His pow'r I|here de- ny; With|all his flames, his|
 d2 f2 d2 z c | d2 z2!ff! d4 | d2 d2 c2 d2 | c3 e e3 d | c>B A2 z ^GAB | A>B ce e3 d | %11
w: flames, his fires and|darts, I,|cham- pion- like, de-|fy. The migh- ty|con- quer- or, the migh- ty|con- quer- or, the migh- ty|
 c>c cc c3 c |"^dim." d2 e2 e3 e | e3!p! e e3 e | d2 d2 B3 c | c2!ff! B2 c2 d2 | A2 ^G2 A4 | %17
w: con- quer- or of hearts, His|pow'r I here de-|ny; With all his|flames, his fires and|darts, I, cham- pion-|like, de- fy.|
 z!p! eea a2 g2 | f>e d4 z2 | z4 z2 d2 | c3 ^A B2 B2 | ^A3 A BF z2 | z dcB ^A2 c2 | d2 c2 B2 =A2 | %24
w: I'll of- fer all my|sa- cri- fice|Hence-|forth at Bac- chus'|shrine, at Bac- chus',|at Bac- chus' shrine. I'll|of- fer all my|
 G2 F2 E2 d2 | c3 B B2 ^A2 | B4 z4 | z eBe c4 | d2 AF D2 d2- | d2 z2 z eBe | c3!f! e eeee | %31
w: sa- cri- fice Hence-|forth at Bac- chus'|shrine.|The mer- ry god|ne'er tells us lies, no,|* ne'er tells us|lies; There's no de- ceit in|
 d3 d dddd | c3!p! A ABcd | e2 c2 d2 B2 |"^cresc." c3 c cdef | g2 e2 f2 d2 | e3!f! e d3 c | %37
w: wine, there's no de- ceit in|wine. The mer- ry, mer- ry|god ne'er tells us|lies, The mer- ry, mer- ry|god ne'er tells us|lies; There's no de-|
 d3 g (e4 | d2)!ff! d2 d2 d2 | d2 Tc2 !fermata!d4 | %40
w: ceit in wine,|* There's no de-|ceit in wine.|
V:3
 z!f! ddc d>F F2 | z ddd d>B BB | A3 G G2 A2 |[M:4/4][K:treble-8] A3 A A2 z2 | z4 z A A>A | %5
w: The migh- ty con- quer- or,|the migh- ty con- quer- or of|hearts, His pow'r I|here de- ny;|With all his|
 A2 F>A d2 A>A | A2 z2!ff! A4 | G2 A2 A2 A2 | A4 z ^GAB | A>B ce e3 d | c>B A2 z AA^G | %11
w: flames, fires and darts, fires and|darts, I,|cham- pion- like, de-|fy. The migh- ty|con- quer- or, the migh- ty|con- quer- or, the migh- ty|
 A>B cc A3 A |"^dim." A2 A2 d2 c2 | B3!p! ^G A3 c | dA B4 E2 | F2!ff! B2 A2 A2 | A2 E2 E4 | %17
w: con- quer- or of hearts, His|pow'r I here de-|ny; With all his|flames, his fires and|darts, I, cham- pion-|like, de- fy.|
 z!p! ccc d3 e | d>F FF F4- | F8 | F3 F F2 F2 | F2 f2 d3 B | F6 ^A2 | B2 =A2 G2 F2 | E2 D2 C2 F2 | %25
w: I'll of- fer all my|sa- cri- fice hence- forth||* at Bac- chus'|shrine, at Bac- chus'|shrine. I'll|of- fer all my|sa- cri- fice Hence-|
 F3 F F2 F2 | F4 z4 | z8 | z4 z dAd | B3 B B2 B2 | A3!f! c cccc | B3 B BBBB |!p! A8- | A8 | %34
w: forth at Bac- chus'|shrine.||The mer- ry|god ne'er tells us|lies; There's no de- ceit in|wine, there's no de- ceit in|wine.||
"^cresc." A3 A ABcd | e2 c2 d2 B2 | c3!f! c d2 A2 | A3 B (c3 d/e/ | f2)!ff! d2 B2 B2 | %39
w: * The mer- ry, mer- ry|god ne'er tells us|lies; There's no de-|ceit in wine, * *|* There's no de-|
 A2 TA2 !fermata!F4 | %40
w: ceit in wine.|
V:4
 z!f! D,F,A, D>D, D,2 | z D,DD B,>B, B,B, | F,3 G, E,2 D,2 |[M:4/4] A,3 A, D,2 z2 | %4
w: The migh- ty con- quer- or,|the migh- ty con- quer- or of|hearts, His pow'r I|here de- ny;|
 z4 z D, C,>A,, | D,4 z D, C,>A,, | D,2 z2!ff! F,4 | G,2 F,2 E,2 D,2 | A,4 z E,F,^G, | %9
w: With all his|flames, his fires and|darts, I,|cham- pion- like, de-|fy. The migh- ty|
 A,>A,, A,,2 z E,F,^G, | A,>A,, A,,2 z A,,C,E, | A,>A, A,A, F,3 F, |"^dim." D,2 C,2 B,,2 A,,2 | %13
w: con- quer- or, the migh- ty|con- quer- or, the migh- ty|con- quer- or of hearts, His|pow'r I here de-|
 E,3!p! D, (C,/D,/C,/B,,/ C,)A,, | (D,/E,/D,/C,/ D,)B,, E,2 C,2 | F,2!ff! ^G,2 A,2 D,2 | %16
w: ny; With all * * * * his|flames, * * * * his fires and|darts, I, cham- pion-|
 E,3 E, A,,4 | z!p! A,A,A, B,3 C | D>D, D,2 z2 B,,2 | F,3 F, D,2 B,,2 | F,3 F, D,2 B,,2 | F,8- | %22
w: like, de- fy.|I'll of- fer all my|sa- cri- fice Hence-|forth at Bac- chus'|shrine, at Bac- chus'|shrine.|
 F,6 F,2 | B,2 =A,2 G,2 F,2 | E,2 D,2 C,2 B,,2 | ^A,,3 B,, F,2 F,2 | B,,4 z B,F,B, | %27
w: * I'll|of- fer all my|sa- cri- fice Hence-|forth at Bac- chus'|shrine. The mer- ry|
 ^G,3 G, A,2 A,2 | D,2 z2 D,2 z2 | G, G,3 E,3 E, | A,3!f! A, A,A,A,A, | B,3 B, E,E,E,E, | %32
w: god ne'er tells us|lies, no,|ne- ver tells us|lies; There's no de- ceit in|wine, there's no de- ceit in|
!p! A,,8- | A,,8 | A,,8 | A,,8 | A,,3!f! A,, D,3 E, | F,3 G, (A,3 B,/C/ | D2)!ff! B,2 G,2 E,2 | %39
w: wine.||||* There's no de-|ceit in wine, * *|* There's no de-|
 A,2 A,,2 !fermata!D,4 | %40
w: ceit in wine.|

